!!!COM: Mozart, Wolfgang Amadeus
!!!CDT: 1756/01/27/-1791/12/05/
!!!CNT: German
!!!OTL: Piano Sonata No. 5 in G major
!!!SCT1: K<sup>1</sup> 283
!!!SCT2: K<sup>6</sup> 189h
!!!OMV: Mvmt. 3
!!!OMD: Presto
!!!ODT: 1774///
**kern	**kern	**dynam
*staff2	*staff1	*staff1/2
*>[A,A,B,B,C]	*>[A,A,B,B,C]	*>[A,A,B,B,C]
*>[A,B,C]	*>[A,B,C]	*>[A,B,C]
*>A	*>A	*>A
*clefF4	*clefG2	*clefG2
*k[f#]	*k[f#]	*k[f#]
*G:	*G:	*G:
*M3/8	*M3/8	*M3/8
*MM144	*MM144	*MM144
=1-	=1-	=1-
8GG\L	4g/ 4b/	f
8G\	.	.
8G\J	8a\ 8cc\	.
=2	=2	=2
.	16bQ/LL	.
.	16ccQ/JJ	.
8G\L	8b\ 8dd\	.
8G\	8r	.
8G\J	8b\ 8dd\	.
=3	=3	=3
8G\L	4ee\ (4gg\	.
8G\	.	.
8G\J	8dd\ 8ff#\)	.
=4	=4	=4
.	(32ff#Q/	.
8G\L	4cc\) (4ee\	.
8G\	.	.
8G\J	8b\ 8dd\)	.
=5	=5	=5
8GG\L	4g/ 4b/	.
8G\	.	.
8G\J	8a\ 8cc\	.
=6	=6	=6
.	ccQ/	.
8G\L	8b\ 8dd\	.
8G\	8r	.
8G\J	8b\ 8dd\	.
=7	=7	=7
8G\L	4cc\ (4ee\	.
8G\	.	.
8G\J	8b\ 8dd\)	.
=8	=8	=8
.	(32ddQ/	.
8G\L	4a\) (4cc\	.
8G\	.	.
8G\J	8g/ 8b/)	.
=9	=9	=9
4.BBB/ 4.BB/	(16d/LL	.
.	16g/	.
.	16f#/	.
.	16g/	.
.	16b/	.
.	16g/JJ	.
=10	=10	=10
4.CC/ 4.C/	16e/LL	.
.	16a/	.
.	16g#/	.
.	16a/	.
.	16cc/	.
.	16a/JJ	.
=11	=11	=11
4.DD/ 4.D/	16f#/LL	.
.	16b/	.
.	16a#/	.
.	16b/	.
.	16dd/	.
.	16b/JJ	.
=12	=12	=12
4.EE/ 4.E/	16g\LL	.
.	16cc\	.
.	16b\	.
.	16cc\	.
.	16ee\	.
.	16cc\JJ	.
=13	=13	=13
(16F#\LL	8dd\)	.
16d\	.	.
16c#\	8r	.
16d\	.	.
16F#\	8aa\ (8ccc\	.
16d\JJ	.	.
=14	=14	=14
16G\LL	8gg\ 8bb\)	.
16d\	.	.
16c#\	8r	.
16d\	.	.
16G\	8b\ (8dd\	.
16d\JJ	.	.
=15	=15	=15
16A\LL	8a\ 8cc\)	.
16d\	.	.
16c#\	8r	.
16d\	.	.
16A\	8cc\ (8ff#\	.
16d\JJ	.	.
=16	=16	=16
16B\LL	8b\ 8gg\)	.
16d\	.	.
16c#\	8r	.
16d\	.	.
16B\	8g/ 8b/	.
16d\JJ)	.	.
=17	=17	=17
8cn\ 8e\	(16a/LL	.
.	16g#/	.
8r	16b/	.
.	16a/	.
8r	16cc/	.
.	16b/JJ	.
=18	=18	=18
8r	16dd\LL	.
.	16cc\JJ	.
8r	[4ee\)	p
*clefG2	*	*
(8c/ 8g/	.	.
=19	=19	=19
8d/) 8f#/	8ee\]	.
8r	[4cc\	.
(8d/ 8f#/	.	.
=20	=20	=20
8e/) 8g/	8cc\]	.
8r	[4b\	.
(8e/ 8g/	.	.
=21	=21	=21
8c/) 8e/	8b\]	.
8r	[4a/	.
*clefF4	*	*
8C\ (8c\	.	.
=22	=22	=22
8D\ 8B\)	8a/]	.
8r	[4g/	.
8D\ (8B\	.	.
=23	=23	=23
8D\ 8A\)	8g/]	.
8r	[4f#/	.
8D\ (8A\	.	.
=24	=24	=24
8G\ 8B\)	8f#/L]	.
8r	(8g/	.
8r	8a/J)	.
=25	=25	=25
(16GG\LL	4.d/ 4.fn/ 4.b/	f
16G\	.	.
16F#\	.	.
16G\	.	.
16A\	.	.
16G\JJ	.	.
=26	=26	=26
8GG/)	(16e/LL	.
.	16g/	.
8r	16cc/	.
.	16g/	.
8r	16ee/	.
.	16cc/JJ)	.
=27	=27	=27
(16GG\LL	4.a\ 4.cc\ 4.ff#\	.
16G\	.	.
16F#\	.	.
16G\	.	.
16A\	.	.
16G\JJ	.	.
=28	=28	=28
8GG/)	(16gg\LL	.
.	16bb\	.
8r	16gg\	.
.	16dd\	.
8r	16b\	.
.	16g\JJ)	.
=29	=29	=29
(16GG\LL	4.d/ 4.fn/ 4.b/	.
16G\	.	.
16F#\	.	.
16G\	.	.
16A\	.	.
16G\JJ	.	.
=30	=30	=30
8GG/)	(16e/LL	.
.	16g/	.
8r	16cc/	.
.	16g/	.
8r	16ee/	.
.	16cc/JJ)	.
=31	=31	=31
(16GG\LL	4.a\ 4.cc\ 4.ff#\	.
16G\	.	.
16F#\	.	.
16G\	.	.
16A\	.	.
16G\JJ	.	.
=32	=32	=32
8GG/)	(16gg\LL	.
.	16aa\	.
8r	16bb\	.
.	16gg\	.
8r	16ff#\	.
.	16dd#\JJ)	.
*clefG2	*	*
=33	=33	=33
16c/LL	(4ee\	.
(16g/	.	.
16f#/	.	.
16g/	.	.
16d/	8dd\)	.
16g/JJ	.	.
=34	=34	=34
.	(32ddQ/	.
16e/LL	4cc\	.
16g/	.	.
16f#/	.	.
16g/	.	.
16d/	8b\)	.
16g/JJ	.	.
=35	=35	=35
16c/LL	(8b/L	.
16g/	.	.
16f#/	8a/	.
16g/	.	.
16d/	8b/J)	.
16g/JJ	.	.
=36	=36	=36
.	32ddQ/	.
16e/LL	(4cc\	.
16g/	.	.
16f#/	.	.
16g/	.	.
16d/	8b\)	.
16g/JJ	.	.
=37	=37	=37
16c/LL	(8b/L	.
16g/	.	.
16f#/	8a/	.
16g/	.	.
16d/	8b/J)	.
16g/JJ	.	.
=38	=38	=38
.	32ddQ/	.
16e/LL	(4cc\	.
16g/	.	.
16f#/	.	.
16g/	.	.
16c#/	8b\)	.
16g/JJ)	.	.
=39	=39	=39
8d/ 8f#/	8a/	.
*clefF4	*	*
8A'\L	8ff#'\ 8aa'\ 8ddd'\L	.
8F#'\J	8ff#'\ 8aa'\ 8ddd'\J	.
=40	=40	=40
8D'\	8ff#'\ 8aa'\ 8ddd'\	.
8r	8r	.
8r	8r	.
=41	=41	=41
4.r	(8aa\L	p
.	8gg#\	.
.	8bb\J	.
=42	=42	=42
4.r	8aa\L	.
.	8gg#\	.
.	8bb\J)	.
*clefG2	*	*
=43	=43	=43
*^	*^	*
(8f#/L	[4.A\	[4.aa/	(8dd\L	.
8e/	.	.	8cc#\	.
8g/J	.	.	8ee\J	.
=44	=44	=44	=44	=44
8f#/L	4.A\_	4.aa/_	8dd\L	.
8e/	.	.	8cc#\	.
8g/J	.	.	8ee\J	.
=45	=45	=45	=45	=45
8f#/L)	8A\]	8aa/]	8dd\)	.
(8A/	4r	4r	8r	.
8d/J	.	.	(16ff#\LL	.
.	.	.	16dd\JJ	.
*v	*v	*	*	*
*	*v	*v	*
=46	=46	=46
8c#/L	8ggn'\)	.
8A/	8r	.
8g/J	(16ee\LL	.
.	16cc#\JJ	.
=47	=47	=47
8f#/L	8dd'\)	.
8A/	8r	.
8d/J	(16a\LL	.
.	16ff#\JJ	.
=48	=48	=48
8c#/)	8ee'\)	.
8r	(16ee\LL	.
.	16gg\	.
8r	16ff#\	.
.	16aa\JJ	.
=49	=49	=49
4.r	8gg\L	.
.	8ff#\	.
.	8aa\J	.
=50	=50	=50
4.r	8gg\L	.
.	8ff#\)	.
.	8aa\J	.
=51	=51	=51
*^	*^	*
(8e/L	[4.A\	[4.gg/	(8cc#\L	.
8d/	.	.	8b\	.
8f#/J	.	.	8dd\J	.
=52	=52	=52	=52	=52
8e/L	4.A\_	4.gg/_	8cc#\L	.
8d/	.	.	8b\	.
8f#/J	.	.	8dd\J	.
=53	=53	=53	=53	=53
8e/L)	8A\]	8gg/]	8cc#\)	.
(8A/	4r	4r	8r	.
8g/J	.	.	(16ee\LL	.
.	.	.	16cc#\JJ	.
*v	*v	*	*	*
*	*v	*v	*
=54	=54	=54
8f#/L	8dd'\)	.
8A/	8r	.
8d/J	(16a\LL	.
.	16ff#\JJ	.
=55	=55	=55
8c#/L	8ee'\)	.
8A/	8r	.
8c#/J	(16a\LL	.
.	16gg\JJ	.
=56	=56	=56
*	*^	*
8d/)	8r	8ff#'\)	.
8r	16ff#/LL	8dd\L	f
.	(16aa/	.	.
8r	16gg/	8ee\J	.
.	16bb/JJ	.	.
*clefF4	*	*	*
=57	=57	=57	=57
8D\ (8d\L	8aa/)	8ff#\	.
8C#\ 8c#\	4r	8r	.
8E\ 8e\J)	.	8r	.
*	*v	*v	*
=58	=58	=58
*^	*	*
8D\ 8d\	8r	4.r	.
*clefG2	*clefG2	*	*
(16d/LL	8B\L	.	.
16f#/	.	.	.
16e/	8c#\J	.	.
16g/JJ	.	.	.
=59	=59	=59	=59
8f#/)	8d\	8b\ (8bb\L	.
8r	4r	8a#\ 8aa#\	.
8r	.	8cc#\ 8ccc#\J)	.
*v	*v	*	*
=60	=60	=60
*	*^	*
4.r	8r	8b\ 8bb\	.
.	(16b/LL	8g\L	.
.	16dd/	.	.
.	16ccn/	8an\J	.
.	16ee/JJ	.	.
*clefF4	*	*	*
=61	=61	=61	=61
(8GG/ 8G/L	8dd/)	8b\	.
8FF#/ 8F#/	4r	8r	.
8AA/) 8A/J	.	8r	.
*	*v	*v	*
=62	=62	=62
*^	*	*
8GG/ 8G/	8r	4.r	.
(16G/LL	8E\L	.	.
16B/	.	.	.
16A/	8F#\J	.	.
16cn/JJ	.	.	.
=63	=63	=63	=63
8B/)	8G\	(8e/ 8ee/L	.
4r	8r	8d#/ 8dd#/	.
.	8r	8f#/) 8ff#/J	.
*v	*v	*	*
=64	=64	=64
4.r	8e/ 8ee/	.
.	(16ee\LL	.
.	16dd#\	.
.	16ff#\	.
.	16ee\JJ	.
=65	=65	=65
8r	16gg\LL	p
.	16ee\	.
8r	16cc#\	.
.	16b-\JJ	.
*clefG2	*	*
8c#/ 8e/ 8g/	8a'/)	f
=66	=66	=66
8r	(16gg\LL	p
.	16ee\	.
8r	16cc#\	.
.	16b-\JJ	.
8c#/ 8e/ 8g/	8a'/)	f
=67	=67	=67
8r	(16gg\LL	p
.	16ee\	.
8r	16cc#\	.
.	16b-\JJ	.
8c#/ 8e/ 8g/	8a'/)	f
=68	=68	=68
8r	(16gg\LL	p
.	16ee\	.
8r	16cc#\	.
.	16b-\JJ	.
8c#/ 8e/ 8g/	8a'/)	f
*clefF4	*	*
=69	=69	=69
(16D\LL	8r	.
16F#\	.	.
16A\	8r	.
16d\JJ	.	.
8f#'\)	8dd\ 8ff#\ 8aa\	f
=70	=70	=70
(16GG\LL	8r	.
16BB\	.	.
16D\	8r	.
16G\JJ	.	.
8B'\)	8dd\ 8gg\ 8ddd\	f
*clefG2	*	*
=71	=71	=71
(16A/LL	4.a/	.
16f#/	.	.
16d/	.	.
16f#/	.	.
16A/	.	.
16f#/JJ	.	.
=72	=72	=72
16A/LL	4.ee\	.
16g/	.	.
16c#/	.	.
16g/	.	.
16A/	.	.
16g/JJ	.	.
=73	=73	=73
.	16ddQ/LL	.
.	16eeQ/JJ	.
8d/) 8f#/	8dd\	.
8r	8r	.
8r	8aa'\	p
=74	=74	=74
8r	(8gg\L	.
8r	8ff#\)	.
8A#'/ 8e'/	8ff#'\J	.
=75	=75	=75
8B'/ 8d'/	8ff#'\	.
8r	8r	.
8r	8ff#'\	.
=76	=76	=76
8r	(8cccn\L	.
8r	8bb\)	.
8d#'/ 8an'/	8bb'\J	.
=77	=77	=77
8r	(4bb\	.
(8dn/ 8g#/L	.	.
8c#/) 8gn/J	8ee\)	.
=78	=78	=78
8r	(4aa\	.
(8cn/ 8f#/L	.	.
8B/) 8g/J	8dd\)	.
*clefF4	*	*
=79	=79	=79
8A\ 8c#\	8gg'\	.
8r	8r	.
8B\ 8d\	8ff#'\	.
=80	=80	=80
*^	*	*
4d/	8G\L	4.ee\	.
.	8E\	.	.
8c#/	8A\J	.	.
*v	*v	*	*
=81	=81	=81
.	16ddQ/LL	.
.	16eeQ/JJ	.
8d\L	8dd\	.
8D\J	8r	.
*clefG2	*	*
8a'/	8r	.
=82	=82	=82
(8g/L	8r	.
8f#/)	8r	.
8f#'/J	8b'\ 8ee#'\	.
=83	=83	=83
8f#'/	8a#'\ 8ff#'\	.
8r	8r	.
8f#'/	8r	.
=84	=84	=84
(8ccn\L	8r	.
8b\)	8r	.
8b'\J	8een'\ 8aa#'\	.
=85	=85	=85
(4b\	8r	.
.	8dd#\ (8aan\L	.
8e/)	8ddn\ 8gg#\J)	.
=86	=86	=86
(4a/	8r	.
.	8cc#\ (8ggn\L	.
8d/)	8dd\ 8ff#\J)	.
=87	=87	=87
8g/	8dd\ 8bb\	.
8r	8r	.
8r	8r	.
=88	=88	=88
8a/	8cc#\ 8gg\	.
8r	8r	.
8r	8r	.
=89	=89	=89
8r	(16f#\LL	p
.	16a\	.
8r	16dd\	.
.	16ff#\JJ	.
*clefF4	*	*
8F#\ 8A\ 8d\	8aa'\)	f
=90	=90	=90
8r	(16g\LL	p
.	16b\	.
8r	16dd\	.
.	16gg\JJ	.
8G\ 8B\ 8d\	8bb'\)	p
=91	=91	=91
(16D\LL	8r	.
16F#\	.	.
16A\	8r	.
16d\JJ	.	.
8f#'\)	8dd\ 8aa\ 8ddd\	f
=92	=92	=92
(16GG\LL	8r	.
16BB\	.	.
16D\	8r	.
16G\JJ	.	.
8B'\)	8dd\ (8gg\ 8ddd\	f
=93	=93	=93
4AA\ 4A\	16ff#\LL	.
.	16ddd\	.
.	16ff#\	.
.	16ddd\	.
8D\ 8d\	16ff#\	.
.	16ddd\JJ	.
=94	=94	=94
4F#\ 4f#\	16ff#\LL	.
.	16ddd\	.
.	16ff#\	.
.	16ddd\	.
8A\ 8a\	16ff#\	.
.	16ddd\JJ	.
=95	=95	=95
8G\ 8g\L	16ee\LL	.
.	16ccc#\	.
8G\ 8g\	16ee\	.
.	16ccc#\	.
8E\ 8e\J	16ee\	.
.	16ccc#\JJ	.
=96	=96	=96
8C#\ 8c#\L	16ee\LL	.
.	16ccc#\	.
8C#\ 8c#\	16ee\	.
.	16ccc#\	.
8AA\ 8A\J	16ee\	.
.	16ccc#\JJ	.
=97	=97	=97
8D\ 8d\	8ff#\ 8ddd\)	.
8r	8r	.
8F#'\	8f#'/	p
=98	=98	=98
8G'\L	8g'/L	.
8G#'\	8g#/	.
8A'\J	8a'/J	.
=99	=99	=99
8A#'\L	8a#'/L	.
8B'\	8b'/	.
(8G#\J	(8g#/J	.
=100	=100	=100
8An\)	8an/)	.
8r	8r	.
8A'\	8a'/	.
=101	=101	=101
8D\	8d'/	.
8r	8r	.
8AA\ 8A\	8ee\ 8aa\ 8ccc#\	f
=102	=102	=102
8DD/ 8D/	8dd\ 8ff#\ 8aa\ 8ddd\	.
8r	8r	.
8r	8r	.
=103:|!|:	=103:|!|:	=103:|!|:
*>B	*>B	*>B
8D\ 8Fn\ 8A\	8r	.
8r	8d'/L	p
8r	8d'/J	.
=104	=104	=104
8r	(4d/	.
8D\ 8Fn\ 8A\L	.	.
8D\ 8F\ 8A\J	8fn/)	.
=105	=105	=105
8D\ 8Fn\ 8A\	8r	.
8r	8d'/L	.
8r	8d'/J	.
=106	=106	=106
8r	(4d/	.
8D\ 8Fn\ 8A\L	.	.
8D\ 8F\ 8A\J	8a/)	.
=107	=107	=107
[4.D\ [4.Fn\ [4.G#\ [4.B\	8r	.
.	(16ddd\LL	f
.	16fffn\	.
.	16bb\	.
.	16ddd\JJ	.
=108	=108	=108
4.D\_ 4.F\_ 4.G#\_ 4.B\_	16gg#\LL	.
.	16bb\	.
.	16ffn\	.
.	16gg#\	.
.	16dd\	.
.	16ff\JJ	.
=109	=109	=109
4.D\_ 4.F\_ 4.G#\_ 4.B\_	16b/LL	.
.	16dd/	.
.	16g#/	.
.	16b/	.
.	16fn/	.
.	16g#/JJ	.
=110	=110	=110
8D\] 8F\] 8G#\] 8B\]	16d/LL	.
.	16fn/	.
8r	16B/	.
.	16d/	.
8r	16G#/	.
.	16B/JJ)	.
=111	=111	=111
8Cn\ 8E\ 8A\	8r	.
8r	8e'/L	p
8r	8e'/J	.
=112	=112	=112
8r	(4e/	.
8C\ 8E\ 8A\L	.	.
8C\ 8E\ 8A\J	8a/)	.
=113	=113	=113
8C\ 8E\ 8A\	8r	.
8r	8a'/L	.
8r	8a'/J	.
=114	=114	=114
8r	(4a/	.
8C\ 8E\ 8A\L	.	.
8C\ 8E\ 8A\J	8ee\)	.
=115	=115	=115
8D#\ 8F#\ 8A\ 8c\	8r	.
8r	(16aa\LL	f
.	16ccc\	.
8r	16ff#\	.
.	16aa\JJ	.
=116	=116	=116
4.r	16dd#\LL	.
.	16ff#\	.
.	16cc\	.
.	16dd#\	.
.	16a\	.
.	16cc\JJ)	.
=117	=117	=117
8E\ 8G\ 8B\	8r	.
8r	(16gg\LL	.
.	16bb\	.
8r	16ee\	.
.	16gg\JJ	.
=118	=118	=118
4.r	16b/LL	.
.	16ee/	.
.	16g/	.
.	16b/	.
.	16e/	.
.	16g/JJ)	.
=119	=119	=119
[4.Cn\ [4.E\ [4.G\ [4.A#\	8r	.
.	(16aa#\LL	.
.	16eee\	.
.	16gg\	.
.	16aa#\JJ	.
=120	=120	=120
4.C\_ 4.E\_ 4.G\_ 4.A#\_	16ee\LL	.
.	16gg\	.
.	16ccn\	.
.	16ee\	.
.	16a#\	.
.	16cc\JJ	.
=121	=121	=121
8C\] 8E\] 8G\] 8A#\]	16g/LL	.
.	16a#/	.
8r	16e/	.
.	16g/	.
8r	16c/	.
.	16e/JJ	.
=122	=122	=122
4.r	16A#/LL	.
.	16g/	.
.	16f#/	.
.	16g/	.
.	16f#/	.
.	16e/JJ	.
=123	=123	=123
(16BB\LL	8d#/)	.
16B\	.	.
16A#\	8r	.
16B\	.	.
16A#\	(8d#/ 8b/	.
16B\JJ	.	.
=124	=124	=124
16BB\LL	8e/) 8cc/	.
16B\	.	.
16A#\	8r	.
16B\	.	.
16A#\	(8e/ 8cc#/	.
16B\JJ	.	.
=125	=125	=125
16BB\LL	8f#/) 8ddn/	.
16B\	.	.
16A#\	8r	.
16B\	.	.
16A#\	8f#/ 8a/ (8dd#/	.
16B\JJ	.	.
=126	=126	=126
16BB\LL	8g\ 8ee\)	.
16B\	.	.
16A#\	8r	.
16B\	.	.
16A#\	8ee\ (8gg\	.
16B\JJ	.	.
=127	=127	=127
8BB/)	16dd#\ 16ff#\LL)	.
.	16bb\	.
8r	16aa#\	.
.	16bb\	.
*clefG2	*	*
[8B/ (8d#/	16b\	.
.	(16bb\JJ	.
=128	=128	=128
8B/] 8e/)	16ccn\LL	.
.	16bb\	.
8r	16aa#\	.
.	16bb\	.
[8B/ (8e/	16cc#\	.
.	16bb\JJ	.
=129	=129	=129
8B/] 8f#/)	16ddn\LL	.
.	16bb\	.
8r	16aa#\	.
.	16bb\	.
[8B/ (8f#/	16dd#\	.
.	16bb\JJ	.
=130	=130	=130
8B/] 8g/)	16ee\LL	.
.	16bb\	.
8r	16aa#\	.
.	16bb\	.
[8B/ (8e/	16gg\	.
.	16bb\JJ	.
=131	=131	=131
8B/] 8d#/)	16ff#\LL	.
.	16bb\	.
8r	16aa#\	.
.	16bb\	.
8r	16aa#\)	.
.	16bb\JJ	.
=132	=132	=132
8r	(16cccn\LL	p
.	16aan\	.
8r	16ff#\	.
.	16ee\JJ	.
8f#'/ 8a'/ 8ccn'/	8dd#'\)	f
=133	=133	=133
8r	(16ccc\LL	p
.	16aa\	.
8r	16ff#\	.
.	16ee\JJ	.
8f#'/ 8a'/ 8cc'/	8dd#'\)	f
=134	=134	=134
8r	(16gg\LL	p
.	16ee\	.
8r	16ccn\	.
.	16b\JJ	.
8cn'/ 8e'/ 8g'/	8a#'/)	f
=135	=135	=135
8r	(16gg\LL	p
.	16ee\	.
8r	16cc\	.
.	16b\JJ	.
8c'/ 8e'/ 8g'/	8a#'/)	f
=136	=136	=136
(16B/LL	4.b\	.
16g/	.	.
16e/	.	.
16g/	.	.
16B/	.	.
16g/JJ	.	.
=137	=137	=137
16B/LL	4.ff#\	.
16a/	.	.
16d#/	.	.
16a/	.	.
16B/	.	.
16a/JJ	.	.
=138	=138	=138
.	16eeQ/LL	.
.	16ff#Q/JJ	.
8e/) 8g/	8ee\	.
8r	8r	.
*clefF4	*	*
8G'\	8g'/	p
=139	=139	=139
8G#'\L	8g#'/L	.
8A'\	8a'/	.
8A#'\J	8a#'/J	.
=140	=140	=140
8B'\L	8b'\L	.
8cn'\	8ccn'\	.
(8A#\J	(8a#\J	.
=141	=141	=141
8B\)	8b\)	.
8r	8r	.
8B'\	8b'\	.
=142	=142	=142
8E'\	8e'/	.
8r	8r	.
8BB\ 8B\	8ff#\ 8aa\ 8ddd#\	f
=143	=143	=143
8EE/ 8E/	8ee\ 8gg\ 8eee\	.
8r	8r	.
8An'\	8an'/	p
=144	=144	=144
8D'\	8d'/	.
8r	8r	.
8AA\ 8A\	8ee\ 8gg\ 8ccc#\	f
=145	=145	=145
8DD/ 8D/	8dd\ 8ffn\ 8aa\ 8ddd\	.
8r	8r	.
8G'\	8g'/	p
=146	=146	=146
8C'/	8c'/	.
8r	8r	.
8GG/ 8G/	8dd\ 8ffn\ 8bb\	f
=147	=147	=147
8CC/ 8C/	8cc\ 8ee\ 8gg\ 8ccc\	.
8r	8r	.
8r	(8dd#\	p
=148	=148	=148
4.r	8ee\L	.
.	8b\	.
.	8cc\J	.
=149	=149	=149
4.r	8g#/L	.
.	8a/	.
.	8e/J)	.
=150	=150	=150
8r	(4.gn/	.
8D\ 8A\ 8c\L	.	.
8D\ 8A\ 8c\J	.	.
=151	=151	=151
8D'\ 8A'\ 8c'\L	8f#/)	.
8D\ 8A\ (8c\	8r	.
8D#\ 8A\ 8B\J)	(8ff#\	.
=152	=152	=152
8E\ 8G\ 8B\	8gg\L	.
8r	8dd#\	.
8r	8ee\J	.
=153	=153	=153
4.r	8b\L	.
.	8cc\	.
.	8g\J)	.
=154	=154	=154
8r	(4.b\	.
8F#\ 8c\ 8d\L	.	.
8F#\ 8c\ 8d\J	.	.
=155	=155	=155
8F#\ 8c\ 8d\L	8a/)	.
8F#\ 8c\ 8d\J	8r	.
*clefG2	*	*
(8a/	8r	.
=156	=156	=156
8b/L	4.r	.
8f#/	.	.
8g/J	.	.
=157	=157	=157
8d#/L	4.r	.
8e/	.	.
8B/J)	.	.
=158	=158	=158
(4.dn/	8r	.
.	8ee\ (8gg\L	.
.	8ffn\ 8gg#\J	.
=159	=159	=159
8c#/)	8ee\ (8aa\L)	.
8r	8a\ 8ee\	.
8r	8b-\ 8ggn\J	.
=160	=160	=160
8d/	8a\ 8ff#\	.
8r	(8dd\L)	f
8r	8cc#\J	.
=161	=161	=161
4.r	8dd\L	.
.	8cc#\	.
.	8dd\J)	.
*clefF4	*	*
=162	=162	=162
8r	4.f#/ 4.a/	.
(8d\L	.	.
8c#\J	.	.
=163	=163	=163
8d\L	4.g/ 4.b-/	.
8c#\	.	.
8d\J)	.	.
=164	=164	=164
.	16aQ/LL	.
.	16b-Q/JJ	.
8D\	8f#/ 8a/	.
8r	(8aa\L	.
8r	8gg#\J	.
=165	=165	=165
4.r	8aa\L	.
.	8gg#\	.
.	8aa\J)	.
*clefG2	*	*
=166	=166	=166
8r	(4ggn\	.
(8e-/ 8g/L	.	.
8d/ 8f#/J	8bb-\)	.
=167	=167	=167
8e-/ 8g/L	4.cc#\	.
8d/ 8f#/	.	.
8e-/) 8g/J	.	.
=168	=168	=168
.	16bQ/LL	.
.	16cc#Q/JJ	.
8d/ 8f#/	(16dd\LL	.
.	16ee-\	.
8r	16een\	.
.	16ffn\	.
8r	16ff#\	.
.	16gg\JJ	.
=169	=169	=169
4.r	16gg#\LL	.
.	16aa\	.
.	16bb-\	.
.	16bbn\	.
.	16cccn\	.
.	16ccc#\JJ	.
=170	=170	=170
4.r	8ddd\)	.
.	8r	.
.	8r	.
=171	=171	=171
4.r	4.r	.
*clefF4	*	*
=172	=172	=172
8GG\L	4g/ 4bn/	.
8G\	.	.
8G\J	8a\ 8cc\	.
=173	=173	=173
.	16bQ/LL	.
.	16ccQ/JJ	.
8G\L	8b\ 8dd\	.
8G\	8r	.
8G\J	8b\ 8dd\	.
=174	=174	=174
8G\L	4ee\ (4gg\	.
8G\	.	.
8G\J	8dd\ 8ff#\)	.
=175	=175	=175
.	32ff#Q/	.
8G\L	4cc\ (4ee\	.
8G\	.	.
8G\J	8b\ 8dd\)	.
=176	=176	=176
8GG\L	4g/ 4b/	.
8G\	.	.
8G\J	8a\ 8cc\	.
=177	=177	=177
.	16bQ/LL	.
.	16ccQ/JJ	.
8G\L	8b\ 8dd\	.
8G\	8r	.
8G\J	8b\ 8dd\	.
=178	=178	=178
8G\L	4cc\ (4ee\	.
8G\	.	.
8G\J	8b\ 8dd\)	.
=179	=179	=179
.	(32ddQ/	.
8G\L	4a\) (4cc\	.
8G\	.	.
8G\J	8g/ 8b/)	.
=180	=180	=180
4.BBB/ 4.BB/	(16d/LL	.
.	16g/	.
.	16f#/	.
.	16g/	.
.	16b/	.
.	16g/JJ	.
=181	=181	=181
4.CC/ 4.C/	16e/LL	.
.	16a/	.
.	16g#/	.
.	16a/	.
.	16cc/	.
.	16a/JJ	.
=182	=182	=182
4.DD/ 4.D/	16f#/LL	.
.	16b/	.
.	16a#/	.
.	16b/	.
.	16dd/	.
.	16b/JJ	.
=183	=183	=183
4.EE/ 4.E/	16g\LL	.
.	16cc\	.
.	16b\	.
.	16cc\	.
.	16ee\	.
.	16cc\JJ	.
=184	=184	=184
(16F#\LL	8dd\)	.
16d\	.	.
16c#\	8r	.
16d\	.	.
16F#\	8aa\ (8ccc\	.
16d\JJ	.	.
=185	=185	=185
16G\LL	8gg\ 8bb\)	.
16d\	.	.
16c#\	8r	.
16d\	.	.
16G\	8b\ (8dd\	.
16d\JJ	.	.
=186	=186	=186
16A\LL	8a\ 8cc\)	.
16d\	.	.
16c#\	8r	.
16d\	.	.
16A\	8cc\ (8ff#\	.
16d\JJ	.	.
=187	=187	=187
16B\LL	8b\ 8gg\)	.
16d\	.	.
16c#\	8r	.
16d\	.	.
16B\	8g/ 8b/	.
16d\JJ	.	.
=188	=188	=188
8cn\ 8e\)	(16a/LL	.
.	16g#/	.
8r	16b/	.
.	16a/	.
8r	16cc/	.
.	16b/JJ	.
=189	=189	=189
8r	16dd\LL	.
.	16cc\JJ	.
8r	[4ee\	.
*clefG2	*	*
(8c/ 8g/	.	.
=190	=190	=190
8d/) 8f#/	8ee\])	.
8r	[4cc\	.
(8d/ 8f#/	.	.
=191	=191	=191
8e/) 8g/	8cc\]	.
8r	[4b\	.
(8e/ 8g/	.	.
=192	=192	=192
8c/) 8e/	8b\]	.
8r	[4a/	.
*clefF4	*	*
8C\ (8c\	.	.
=193	=193	=193
8D\ 8B\)	8a/]	.
8r	[4g/	.
8D\ (8B\	.	.
=194	=194	=194
8D\ 8A\)	8g/]	.
8r	[4f#/	.
8D\ (8A\	.	.
=195	=195	=195
8G\ 8B\)	(8f#/L]	.
8r	8g/	.
8r	8a/J)	.
=196	=196	=196
(16GG\LL	4.d/ 4.fn/ 4.b/	f
16G\	.	.
16F#\	.	.
16G\	.	.
16A\	.	.
16G\JJ	.	.
=197	=197	=197
8GG/)	(16e/LL	.
.	16g/	.
8r	16cc/	.
.	16g/	.
8r	16ee/	.
.	16cc/JJ)	.
=198	=198	=198
(16GG\LL	4.a\ 4.cc\ 4.ff#\	.
16G\	.	.
16F#\	.	.
16G\	.	.
16A\	.	.
16G\JJ	.	.
=199	=199	=199
8GG/)	(16gg\LL	.
.	16bb\	.
8r	16gg\	.
.	16dd\	.
8r	16b\	.
.	16g\JJ)	.
=200	=200	=200
(16GG\LL	4.d/ 4.fn/ 4.b/	.
16G\	.	.
16F#\	.	.
16G\	.	.
16A\	.	.
16G\JJ	.	.
=201	=201	=201
8GG/)	(16e/LL	.
.	16g/	.
8r	16cc/	.
.	16g/	.
8r	16ee/	.
.	16cc/JJ)	.
=202	=202	=202
(16GG\LL	4.a\ 4.cc\ 4.ff#\	.
16G\	.	.
16F#\	.	.
16G\	.	.
16A\	.	.
16G\JJ	.	.
=203	=203	=203
8GG/)	(16gg\LL	.
.	16aa\	.
8r	16bb\	.
.	16gg\	.
8r	16ff#\	.
.	16dd#\JJ)	.
*clefG2	*	*
=204	=204	=204
(16c/LL	(4ee\	.
16g/	.	.
16f#/	.	.
16g/	.	.
16d/	8ddn\)	.
16g/JJ	.	.
=205	=205	=205
.	32ddQ/	.
16e/LL	(4cc\	.
16g/	.	.
16f#/	.	.
16g/	.	.
16d/	8b\)	.
16g/JJ	.	.
=206	=206	=206
16c/LL	(8b/L	.
16g/	.	.
16f#/	(8a/)	.
16g/	.	.
16d/	8b/J)	.
16g/JJ	.	.
=207	=207	=207
.	32ddQ/	.
16e/LL	(4cc\	.
16g/	.	.
16f#/	.	.
16g/	.	.
16d/	8b\)	.
16g/JJ	.	.
=208	=208	=208
16c/LL	(8b/L	.
16g/	.	.
16f#/	8a/	.
16g/	.	.
16d/	8b/J)	.
16g/JJ	.	.
=209	=209	=209
.	32ddQ/	.
16d/LL	(4cc\	.
16g/	.	.
16f#/	.	.
16g/	.	.
16c#/	8b\)	.
16g/JJ)	.	.
=210	=210	=210
8d/ 8f#/	8a/	.
*clefF4	*	*
8A'\L	8ff#'\ 8aa'\ 8ddd'\L	.
8F#'\J	8ff#'\ 8aa'\ 8ddd'\J	.
=211	=211	=211
8D'\	8ff#'\ 8aa'\ 8ddd'\	.
8r	8r	.
8r	8r	.
=212	=212	=212
4.r	(8ddd\L	p
.	8ccc#\	.
.	8eee\J	.
=213	=213	=213
4.r	8ddd\L	.
.	8ccc#\	.
.	8eee\J)	.
*clefG2	*	*
=214	=214	=214
*^	*^	*
(8b/L	[4.d\	[4.ddd/	8gg\L	.
8a/	.	.	(8ff#\	.
8cc/J	.	.	8aa\J	.
=215	=215	=215	=215	=215
8b/L	4.d\_	4.ddd/_	8gg\L	.
8a/	.	.	8ff#\	.
8cc/J	.	.	8aa\J	.
=216	=216	=216	=216	=216
8b/L)	8d\]	8ddd/]	8gg\)	.
(8d/	4r	4r	8r	.
8g/J	.	.	(16bb\LL	.
.	.	.	16gg\JJ	.
*v	*v	*	*	*
*	*v	*v	*
=217	=217	=217
8f#/L	8cccn'\)	.
8d/	8r	.
8cc/J	(16aa\LL	.
.	16ff#\JJ	.
=218	=218	=218
8b/L	8gg\)	.
8d/	8r	.
8g/J	(16dd\LL	.
.	16bb\JJ	.
=219	=219	=219
8f#/)	8aa'\)	.
8r	(16aa\LL	.
.	16ccc\	.
8r	16bb\	.
.	16ddd\JJ	.
=220	=220	=220
4.r	8ccc\L	.
.	8bb\	.
.	8ddd\J	.
=221	=221	=221
4.r	8ccc\L	.
.	8bb\	.
.	8ddd\J)	.
=222	=222	=222
*^	*^	*
(8a/L	[4.d\	[4.ccc/	(8ff#\L	.
8g/	.	.	8ee\	.
8b/J	.	.	8gg\J	.
=223	=223	=223	=223	=223
8a/L	4.d\_	4.ccc/_	8ff#\L	.
8g/	.	.	8ee\	.
8b/J	.	.	8gg\J	.
=224	=224	=224	=224	=224
8a/L)	8d\]	8ccc/]	8ff#\)	.
(8d/	4r	4r	8r	.
8cc/J	.	.	(16aa\LL	.
.	.	.	16ff#\JJ	.
*v	*v	*	*	*
*	*v	*v	*
=225	=225	=225
8b/L	8gg'\)	.
8d/	8r	.
8g/J	(16dd\LL	.
.	16bb\JJ	.
=226	=226	=226
8f#/L	8aa'\)	.
8d/	8r	.
8f#/J	(16dd\LL	.
.	16ccc\JJ	.
=227	=227	=227
*	*^	*
8g/)	8r	8bb'\)	.
8r	16bb/LL	8gg\L	f
.	(16ddd/	.	.
8r	16ccc/	8aa\J	.
.	16eee/JJ	.	.
*clefF4	*	*	*
=228	=228	=228	=228
8G\ (8g\L	8ddd/)	8bb\	.
8F#\ 8f#\	4r	8r	.
8A\ 8a\J)	.	8r	.
*	*v	*v	*
=229	=229	=229
*^	*	*
8r	8G\ 8g\	4.r	.
(16G/LL	8E\L	.	.
16B/	.	.	.
16A/	8F#\J	.	.
16c/JJ	.	.	.
=230	=230	=230	=230
8B/)	8G\	(8e/ 8ee/L	.
4r	8r	8d#/ 8dd#/	.
.	8r	8f#/) 8ff#/J	.
*v	*v	*	*
=231	=231	=231
*	*^	*
4.r	8e/ 8ee/	8r	.
.	16e/LL	8c\L	.
.	(16g/	.	.
.	16fn/	8dn\J	.
.	16a/JJ	.	.
=232	=232	=232	=232
(8CC/ 8C/L	8g/)	8e\	.
8BBB/ 8BB/	8r	4r	.
8DD/) 8D/J	8r	.	.
*	*v	*v	*
=233	=233	=233
*^	*	*
8CC/ 8C/	8r	4.r	.
(16c/LL	8A\L	.	.
16e/	.	.	.
16d/	8B\J	.	.
16fn/JJ	.	.	.
=234	=234	=234	=234
8e/)	8c\	8a\ (8aa\L	.
4r	8r	8g#\ 8gg#\	.
.	8r	8b\ 8bb\J)	.
*v	*v	*	*
=235	=235	=235
4.r	8a\ 8aa\	.
.	(16aa\LL	.
.	16gg#\	.
.	16bb\	.
.	16aa\JJ	.
=236	=236	=236
8r	16ccc\LL	p
.	16aa\	.
8r	16ff#\	.
.	16ee-\JJ	.
*clefG2	*	*
8f#'/ 8a'/ 8cc'/	8dd\)	f
=237	=237	=237
8r	(16ccc\LL	p
.	16aa\	.
8r	16ff#\	.
.	16ee-\JJ	.
8f#'/ 8a'/ 8cc'/	8dd'\)	f
=238	=238	=238
8r	(16ccc\LL	p
.	16aa\	.
8r	16ff#\	.
.	16ee-\JJ	.
8f#'/ 8a'/ 8cc'/	8dd'\)	f
=239	=239	=239
8r	(16ccc\LL	p
.	16aa\	.
8r	16ff#\	.
.	16ee-\JJ	.
8f#'/ 8a'/ 8cc'/	8dd'\)	f
*clefF4	*	*
=240	=240	=240
(16GG\LL	8r	.
16BB\	.	.
16D\	8r	.
16G\JJ	.	.
8B'\)	8g'\ 8b'\ 8dd'\	f
=241	=241	=241
(16C\LL	8r	.
16E\	.	.
16G\	8r	.
16c\JJ	.	.
8e'\)	8g'\ 8cc'\ 8gg'\	f
*clefG2	*	*
=242	=242	=242
(16d/LL	4.dd\	.
16b/	.	.
16g/	.	.
16b/	.	.
16d/	.	.
16b/JJ	.	.
=243	=243	=243
16d/LL	4.aa\	.
16cc/	.	.
16f#/	.	.
16cc/	.	.
16d/	.	.
16cc/JJ	.	.
=244	=244	=244
.	16ggQ/LL	.
.	16aaQ/JJ	.
8g/) 8b/	8gg\	.
8r	8r	.
8r	8ddd'\	p
=245	=245	=245
8r	(8ccc\L	.
8r	8bb\)	.
8d#'/ 8a'/	8bb'\J	.
=246	=246	=246
8e'/ 8g'/	8bb'\	.
8r	8r	.
8r	8bb'\	.
=247	=247	=247
8r	(8fffn\L	.
8r	8eee\)	.
8g#'\ 8ddn'\	8eee'\J	.
=248	=248	=248
8r	(4eee\	.
(8g/ 8cc#/L	.	.
8f#/) 8ccn/J	8aa\)	.
=249	=249	=249
8r	(4ddd\	.
(8fn/ 8b/L	.	.
8e/) 8cc/J	8gg\)	.
=250	=250	=250
8d'/ 8f#'/	8ccc'\	.
8r	8r	.
8e'/ 8g'/	8bb'\	.
=251	=251	=251
*^	*	*
4g/	8c\L	4.aa\	.
.	8A\	.	.
8f#/	8d\J	.	.
*v	*v	*	*
=252	=252	=252
.	16ggQ/LL	.
.	16aaQ/JJ	.
8g/L	8gg\	.
8G/J	8r	.
8d'/	8r	.
=253	=253	=253
(8c/L	8r	.
8B/)	8r	.
8B'/J	8a#'\ 8ee'\	.
=254	=254	=254
8B'/	8b'\ 8dd#'\	.
8r	8r	.
8B'/	8r	.
=255	=255	=255
(8fn/L	8r	.
8e/)	8r	.
8e'/J	8an'\ 8dd#'\	.
=256	=256	=256
(4e/	8r	.
.	(8g#/ 8ddn/L	.
8A/)	8gn/) 8cc#/J	.
=257	=257	=257
(4d/	8r	.
.	(8f#/ 8ccn/L	.
8A/)	8g/) 8b/J	.
=258	=258	=258
8c/	8g\ 8ee\	.
8r	8r	.
8r	8r	.
=259	=259	=259
8d/	8f#/ 8cc/	.
8r	8r	.
8r	8r	.
=260	=260	=260
8r	(16b\LL	p
.	16dd\	.
8r	16gg\	.
.	16bb\JJ	.
8B'/ 8d'/ 8g'/	8ddd'\)	f
=261	=261	=261
8r	(16cc\LL	p
.	16ee\	.
8r	16gg\	.
.	16ccc\JJ	.
8c'/ 8e'/ 8g'/	8eee'\)	f
*clefF4	*	*
=262	=262	=262
(16GG\LL	8r	.
16BB\	.	.
16D\	8r	.
16G\JJ	.	.
8B'\)	8dd'\ 8gg'\ 8ddd'\	f
=263	=263	=263
(16C\LL	8r	.
16E\	.	.
16G\	8r	.
16c\JJ	.	.
8e'\)	8cc'\ 8ee'\ 8gg'\ 8ccc'\	f
=264	=264	=264
*	*^	*
4DD/ 4D/	16gg/LL	8b\ 8dd\L	.
.	16bb/	.	.
.	16gg/	8b\ 8dd\	.
.	16bb/	.	.
8GG/ 8G/	16gg/	8b\ 8dd\J	.
.	16bb/JJ	.	.
=265	=265	=265	=265
4BB\ 4B\	16gg/LL	8b\ 8dd\L	.
.	16bb/	.	.
.	16gg/	8b\ 8dd\	.
.	16bb/	.	.
8D\ 8d\	16gg/	8b\ 8dd\J	.
.	16bb/JJ	.	.
=266	=266	=266	=266
8C\ 8c\L	16ff#/LL	8a\ 8dd\L	.
.	16aa/	.	.
8C\ 8c\	16ff#/	8a\ 8dd\	.
.	16aa/	.	.
8AA\ 8A\J	16ff#/	8a\ 8dd\J	.
.	16aa/JJ	.	.
=267	=267	=267	=267
8FF#/ 8F#/L	16ff#/LL	8a\ 8dd\	.
.	16aa/	.	.
8FF#/ 8F#/	16ff#/	8a\ 8dd\	.
.	16aa/	.	.
8DD/ 8D/J	16ff#/	8a\ 8dd\	.
.	16aa/JJ	.	.
=268	=268	=268	=268
8GG/ 8G/	8dd/ 8gg/	8b\	.
8r	4r	8r	.
8B'\	.	8b'\	p
*	*v	*v	*
=269	=269	=269
8c'\L	8cc'\L	.
8c#'\	8cc#'\	.
8d'\J	8dd'\J	.
=270	=270	=270
8d#'\L	8dd#'\L	.
8e'\	8ee'\	.
(8c#\J	(8cc#\J	.
=271	=271	=271
8dn\)	8ddn\)	.
8r	8r	.
8d'\	8dd'\	.
=272	=272	=272
8G'\	8g'/	.
8r	8r	.
8DD/ 8D/	8dd\ 8ff#\ 8aa\ 8cccn\	f
=273	=273	=273
8GGG/ 8GG/	8dd\ 8gg\ 8bb\	.
8r	8r	.
8r	8r	.
=274:|!	=274:|!	=274:|!
*>C	*>C	*>C
8D\ 8F#\ 8A\ 8d\	8a\ 8cc\ 8dd\ 8ff#\	.
8r	8r	.
8r	8r	.
=275	=275	=275
4.r	4.r	.
=276	=276	=276
8GG/ 8BB/ 8D/ 8G/	8g\ 8b\ 8dd\ 8gg\	.
8r	8r	.
8r	8r	.
=277	=277	=277
4.r	4.r	.
==	==	==
*-	*-	*-
!!!SMS: Alte Mozart-Ausgabe, Band 20, Breitkopf &amp; H&auml;rtel 1877-1883.
!!!ONB: Stich und Druck von Breitkopf &amp; H&auml;rtel in Leipzig
!!!ONB: Ausgegeben 1878
!!!ENC: Craig Stuart Sapp
!!!END: 2009/10/06/
!!!title: @{OTL}, K 283 (189h), @{OMV}
!!!hum2abc: --no-tempo -s 0.65 --spacing 2.0 -p "%gracespace  0 6.0 12.0"
!!!ONB: Not proofread
